img/google_chrome_icon.svg

<svg width="38" height="32" viewBox="0 0 38 32" fill="none" xmlns="http://www.w3.org/2000/svg">
<g clip-path="url(#clip0_1_216)">
<path d="M22.7115 6.73833H14.3005C13.3708 6.73833 12.6173 5.98408 12.6173 5.05333C12.6173 4.12425 13.3708 3.37 14.3005 3.37H22.7115C23.6413 3.37 24.3947 4.12425 24.3947 5.05333C24.3947 5.98408 23.6413 6.73833 22.7115 6.73833ZM0 0V29.4742C0 30.8628 1.13599 32 2.52313 32H34.4889C35.8761 32 37.012 30.8628 37.012 29.4742V0H0Z" fill="#EEEEEE"/>
<path d="M18.5069 13.4733C12.8651 13.4733 7.90703 16.3988 5.0629 20.8177V31.9983H12.8552L18.5069 22.198H32.7458C30.0996 17.0198 24.7157 13.4733 18.5069 13.4733Z" fill="#DB4437"/>
<path d="M5.05791 20.8244C3.45455 23.3186 2.52313 26.2873 2.52313 29.4742C2.52313 30.3333 2.59133 31.1775 2.72272 32H11.5678L5.05791 20.8244Z" fill="#0F9D58"/>
<path d="M34.4889 29.4742C34.4889 26.8551 33.8602 24.3825 32.7458 22.1997H18.5069L24.1585 32H34.2893C34.4207 31.1775 34.4889 30.3333 34.4889 29.4742Z" fill="#FFCD40"/>
<path d="M18.5069 22.1997C14.4935 22.1997 11.2418 25.4565 11.2418 29.4742C11.2418 30.3633 11.4015 31.2141 11.6926 32H13.2693C12.9001 31.2358 12.6938 30.3783 12.6938 29.4742C12.6938 26.259 15.2968 23.6549 18.5069 23.6549C21.7169 23.6549 24.3199 26.259 24.3199 29.4742C24.3199 30.3799 24.1136 31.2358 23.7444 32H25.3211C25.6122 31.2125 25.7719 30.3616 25.7719 29.4742C25.7719 25.4565 22.5186 22.1997 18.5069 22.1997Z" fill="#F1F1F1"/>
<path d="M18.5069 23.6549C15.2968 23.6549 12.6938 26.259 12.6938 29.4741C12.6938 30.3799 12.9001 31.2357 13.2693 32H23.7444C24.1136 31.2357 24.3199 30.3783 24.3199 29.4741C24.3182 26.259 21.7169 23.6549 18.5069 23.6549Z" fill="#4285F4"/>
<path opacity="0.05" d="M0 0V16.0008H37.012V0H0ZM22.7115 6.73834H14.3005C13.3708 6.73834 12.6173 5.98408 12.6173 5.05334C12.6173 4.12426 13.3708 3.37 14.3005 3.37H22.7132C23.6429 3.37 24.3964 4.12426 24.3964 5.05334C24.3947 5.98408 23.6413 6.73834 22.7115 6.73834Z" fill="#212121"/>
<path opacity="0.02" d="M37.012 15.7894H0V16.0008H37.012V15.7894Z" fill="#212121"/>
<path opacity="0.05" d="M37.012 16.0009H0V16.2123H37.012V16.0009Z" fill="white"/>
<path opacity="0.02" d="M0 0V0.211457H37.012V0H0ZM22.7115 6.73833H14.3005C13.4074 6.73833 12.6772 6.03902 12.624 5.15989C12.619 5.19486 12.6173 5.22982 12.6173 5.26479C12.6173 6.19554 13.3708 6.94812 14.3005 6.94812H22.7115C23.6413 6.94812 24.3947 6.19554 24.3947 5.26479C24.3947 5.22982 24.3931 5.19486 24.3881 5.15989C24.3348 6.03736 23.6063 6.73833 22.7115 6.73833Z" fill="#212121"/>
<path opacity="0.1" d="M34.4889 31.7885H2.52313C1.13599 31.7885 0 30.653 0 29.2627V29.4742C0 30.8628 1.13599 32 2.52313 32H34.4889C35.8761 32 37.012 30.8628 37.012 29.4742V29.2627C37.012 30.653 35.8761 31.7885 34.4889 31.7885ZM14.3005 3.36832H22.7115C23.6047 3.36832 24.3348 4.06763 24.3881 4.94676C24.3897 4.91179 24.3947 4.87682 24.3947 4.84186C24.3947 3.91111 23.6413 3.15686 22.7115 3.15686H14.3005C13.3708 3.15686 12.6173 3.91111 12.6173 4.84186C12.6173 4.87682 12.619 4.91179 12.624 4.94676C12.6772 4.06763 13.4057 3.36832 14.3005 3.36832Z" fill="#231F20"/>
</g>
<defs>
<clipPath id="clip0_1_216">
<rect width="37.012" height="32" rx="8" fill="white"/>
</clipPath>
</defs>
</svg>

<svg xmlns="http://www.w3.org/2000/svg" width="38" height="32" fill="none"><g clip-path="url(#a)"><path fill="#EEE" d="M22.712 6.738H14.3a1.684 1.684 0 0 1 0-3.368h8.412a1.684 1.684 0 0 1 0 3.368ZM0 0v29.474A2.533 2.533 0 0 0 2.523 32H34.49a2.533 2.533 0 0 0 2.523-2.526V0H0Z"/><path fill="#DB4437" d="M18.507 13.473c-5.642 0-10.6 2.926-13.444 7.345v11.18h7.792l5.652-9.8h14.239c-2.646-5.178-8.03-8.725-14.24-8.725Z"/><path fill="#0F9D58" d="M5.058 20.824a15.943 15.943 0 0 0-2.535 8.65c0 .86.068 1.703.2 2.526h8.845l-6.51-11.176Z"/><path fill="#FFCD40" d="M34.489 29.474c0-2.619-.629-5.091-1.743-7.274h-14.24l5.652 9.8H34.29c.132-.823.2-1.667.2-2.526Z"/><path fill="#F1F1F1" d="M18.507 22.2c-4.014 0-7.265 3.256-7.265 7.274 0 .89.16 1.74.45 2.526h1.577a5.792 5.792 0 0 1-.575-2.526 5.816 5.816 0 0 1 5.813-5.82 5.816 5.816 0 0 1 5.813 5.82c0 .906-.206 1.762-.576 2.526h1.577a7.27 7.27 0 0 0 .45-2.526c0-4.018-3.252-7.274-7.264-7.274Z"/><path fill="#4285F4" d="M18.507 23.655a5.816 5.816 0 0 0-5.813 5.82c0 .905.206 1.76.575 2.525h10.475c.37-.764.576-1.622.576-2.526a5.817 5.817 0 0 0-5.813-5.82Z"/><path fill="#212121" d="M0 0v16h37.012V0H0Zm22.712 6.738H14.3a1.684 1.684 0 0 1 0-3.368h8.413a1.684 1.684 0 1 1-.002 3.368Z" opacity=".05"/><path fill="#212121" d="M37.012 15.79H0V16h37.012v-.21Z" opacity=".02"/><path fill="#fff" d="M37.012 16H0v.212h37.012v-.211Z" opacity=".05"/><path fill="#212121" d="M0 0v.211h37.012V0H0Zm22.712 6.738H14.3c-.893 0-1.623-.699-1.676-1.578a.739.739 0 0 0-.007.105c0 .93.754 1.683 1.683 1.683h8.412c.93 0 1.683-.752 1.683-1.683a.739.739 0 0 0-.007-.105 1.682 1.682 0 0 1-1.677 1.578Z" opacity=".02"/><path fill="#231F20" d="M34.489 31.788H2.523A2.532 2.532 0 0 1 0 29.264v.211A2.533 2.533 0 0 0 2.523 32H34.49a2.533 2.533 0 0 0 2.523-2.526v-.211a2.531 2.531 0 0 1-2.523 2.525ZM14.3 3.368h8.41c.894 0 1.624.7 1.677 1.579.002-.035.007-.07.007-.105 0-.93-.754-1.685-1.683-1.685H14.3c-.93 0-1.683.754-1.683 1.685 0 .035.002.07.007.105A1.68 1.68 0 0 1 14.3 3.368Z" opacity=".1"/></g><defs><clipPath id="a"><rect width="37.012" height="32" fill="#fff" rx="8"/></clipPath></defs></svg>
